X:25
T:Brooks Maggot
M:6/8
L:1/8
B:Thompson's Compleat Collection of 200 Favourite Country Dances, vol. 2 (London, 1765)
Z:Transcribed and edited by Flynn Titford-Mock, 2007
Z:abc's:AK/Fiddler's Companion
K:G
G3 BGB | dBd efg | G3 BGB | ABA AFD | G3 BGB | dBd efg | faf ge^c | d3 D3 :|
|: dBG GBd | ecG EGc | egf ed^c | dAF D3 | G3 BGB | dBd efg | dBG cAF | G3 G3 :|

